src/assets/img/providers-white/fazi.svg

<svg width="86" height="32" viewBox="0 0 86 32" fill="none" xmlns="http://www.w3.org/2000/svg">
<g clip-path="url(#clip0_4595_7853)">
<path fill-rule="evenodd" clip-rule="evenodd" d="M84.777 0.000976562H65.2662C65.0534 0.000976562 64.8808 0.17349 64.8808 0.386296V0.395797C64.8808 0.608603 65.0534 0.781116 65.2662 0.781116H84.777C84.9899 0.781116 85.1624 0.608603 85.1624 0.395797V0.386296C85.1624 0.17349 84.9899 0.000976562 84.777 0.000976562ZM84.2281 2.39366H65.8151C65.3 2.39366 64.8824 2.81123 64.8824 3.32634V3.34534C64.8824 3.86045 65.3 4.27802 65.8151 4.27802H84.2281C84.7432 4.27802 85.1608 3.86045 85.1608 3.34534V3.32634C85.1608 2.81123 84.7432 2.39366 84.2281 2.39366ZM64.8777 7.27455L64.8782 24.8018C64.8782 25.1696 65.0243 25.5223 65.2843 25.7823C65.5444 26.0424 65.8971 26.1884 66.2648 26.1884L83.7768 26.189C84.1446 26.189 84.4972 26.0429 84.7573 25.7828C85.0173 25.5228 85.1634 25.1701 85.1634 24.8024L85.1645 7.27455C85.1645 7.09246 85.1286 6.91215 85.0589 6.74391C84.9892 6.57568 84.8871 6.42282 84.7583 6.29406C84.6296 6.1653 84.4767 6.06316 84.3085 5.99348C84.1403 5.9238 83.96 5.88793 83.7779 5.88793H66.2643C65.8965 5.88793 65.5439 6.03402 65.2838 6.29406C65.0238 6.5541 64.8777 6.9068 64.8777 7.27455ZM76.5203 9.33659C76.5246 9.34085 76.527 9.34662 76.527 9.35264V11.6582C76.527 11.6642 76.5246 11.67 76.5203 11.6743C76.5161 11.6785 76.5103 11.6809 76.5043 11.6809H73.54C73.534 11.6809 73.5282 11.6785 73.5239 11.6743C73.5197 11.67 73.5173 11.6642 73.5173 11.6582V9.35264C73.5173 9.34662 73.5197 9.34085 73.5239 9.33659C73.5282 9.33233 73.534 9.32994 73.54 9.32994H76.5043C76.5103 9.32994 76.5161 9.33233 76.5203 9.33659ZM73.5261 22.3449C73.5205 22.3393 73.5173 22.3316 73.5173 22.3236L73.5168 13.3367C73.5168 13.3288 73.5199 13.3211 73.5256 13.3155C73.5312 13.3098 73.5389 13.3066 73.5468 13.3066L76.4969 13.3082C76.5049 13.3082 76.5125 13.3114 76.5182 13.317C76.5238 13.3227 76.527 13.3303 76.527 13.3383V22.3236L76.5269 22.3258L76.5267 22.328C76.5263 22.3309 76.5254 22.3337 76.5242 22.3363C76.5227 22.3395 76.5207 22.3424 76.5182 22.3449C76.5125 22.3506 76.5049 22.3537 76.4969 22.3537H73.5474C73.5449 22.3537 73.5424 22.3534 73.54 22.3528C73.5392 22.3526 73.5384 22.3524 73.5376 22.3521C73.5369 22.3519 73.5362 22.3516 73.5355 22.3513C73.5333 22.3503 73.5312 22.3491 73.5292 22.3476L73.5261 22.3449ZM21.1139 30.6281C21.1139 30.9922 20.9692 31.3414 20.7118 31.5989C20.4543 31.8563 20.1051 32.001 19.741 32.001H2.20841C1.84429 32.001 1.49509 31.8563 1.23762 31.5989C0.980154 31.3414 0.83551 30.9922 0.83551 30.6281V13.0776C0.83551 12.7135 0.980154 12.3643 1.23762 12.1068C1.49509 11.8493 1.84429 11.7047 2.20841 11.7047H19.741C20.1051 11.7047 20.4543 11.8493 20.7118 12.1068C20.9692 12.3643 21.1139 12.7135 21.1139 13.0776V30.6281ZM11.3774 21.5968H13.2132C13.2187 21.5968 13.2239 21.5947 13.2278 21.5908C13.2316 21.5869 13.2338 21.5817 13.2338 21.5762L13.2322 19.7779C13.2322 19.754 13.2203 19.742 13.1963 19.742H11.3769C11.3694 19.742 11.3621 19.7391 11.3567 19.7339C11.3513 19.7287 11.3481 19.7216 11.3479 19.714C11.3373 19.2886 11.3399 18.8688 11.3558 18.4546C11.3685 18.1154 11.4943 17.8219 11.7332 17.5742C11.778 17.5274 11.8334 17.4996 11.8891 17.4717L11.8891 17.4717L11.8891 17.4717L11.8891 17.4717C11.9213 17.4556 11.9536 17.4395 11.9839 17.4195C12.0363 17.3851 12.094 17.3595 12.157 17.343C12.602 17.2264 13.058 17.2929 13.5199 17.3646C13.5407 17.3682 13.5521 17.3594 13.5542 17.3383L13.7717 15.4407C13.773 15.4291 13.77 15.4175 13.7632 15.4082C13.7565 15.3988 13.7465 15.3923 13.7353 15.39C13.4808 15.3404 13.2291 15.2973 12.9799 15.2607C11.5104 15.0453 9.73955 15.4629 9.04598 16.9419C8.82288 17.4173 8.70852 17.9555 8.70289 18.5565C8.69972 18.927 8.69814 19.3101 8.69814 19.7056C8.69814 19.7153 8.69435 19.7245 8.68762 19.7313C8.68089 19.7382 8.67176 19.742 8.66224 19.742H7.2714C7.25169 19.742 7.24184 19.7519 7.24184 19.7716L7.24131 21.5762C7.24131 21.5817 7.24348 21.5869 7.24734 21.5908C7.2512 21.5947 7.25644 21.5968 7.2619 21.5968L8.66699 21.5952C8.67581 21.5952 8.68427 21.5987 8.69051 21.605C8.69674 21.6112 8.70025 21.6197 8.70025 21.6285L8.69972 27.7672C8.69972 27.7713 8.70139 27.7752 8.70436 27.778C8.70733 27.7809 8.71135 27.7825 8.71555 27.7825L11.3114 27.7846C11.3326 27.7846 11.3431 27.7743 11.3431 27.7535V21.6311C11.3431 21.6083 11.3546 21.5968 11.3774 21.5968ZM42.0634 31.5975C42.3217 31.3391 42.4669 30.9887 42.4669 30.6233V13.0823C42.4669 12.717 42.3217 12.3665 42.0634 12.1082C41.805 11.8498 41.4546 11.7047 41.0892 11.7047H23.562C23.1966 11.7047 22.8462 11.8498 22.5878 12.1082C22.3295 12.3665 22.1843 12.717 22.1843 13.0823V30.6233C22.1843 30.9887 22.3295 31.3391 22.5878 31.5975C22.8462 31.8558 23.1966 32.001 23.562 32.001H41.0892C41.4546 32.001 41.805 31.8558 42.0634 31.5975ZM33.9202 27.573C33.7344 27.1303 33.6054 26.6679 33.5333 26.1858C33.5266 26.1415 33.5125 26.1388 33.4911 26.1779C33.0704 26.9412 32.2733 27.5925 31.4214 27.7355C30.9186 27.8196 30.3775 27.7985 29.7983 27.6722C28.8815 27.4716 28.143 26.8699 27.8274 25.9826C27.639 25.4537 27.6004 24.8103 27.6933 24.2624C28.0116 22.3981 29.9841 21.8518 31.5988 21.8101C32.1723 21.7953 32.788 21.7934 33.4457 21.8043C33.4507 21.8043 33.4557 21.8034 33.4604 21.8015C33.4651 21.7997 33.4694 21.7969 33.4731 21.7934C33.4767 21.7898 33.4796 21.7856 33.4816 21.781C33.4825 21.7789 33.4832 21.7767 33.4837 21.7744C33.484 21.7731 33.4843 21.7717 33.4844 21.7703C33.4846 21.769 33.4847 21.7676 33.4847 21.7663C33.4921 21.4387 33.4896 21.1295 33.4773 20.8389C33.4604 20.4467 33.2984 20.0434 32.9754 19.798C32.5937 19.5087 31.9672 19.4718 31.5312 19.5805C30.9798 19.7177 30.6893 20.0809 30.6597 20.6699C30.6593 20.6777 30.656 20.6849 30.6504 20.6902C30.6448 20.6955 30.6374 20.6985 30.6297 20.6985H28.1372C28.1281 20.6985 28.1194 20.6951 28.1127 20.6889C28.1061 20.6827 28.102 20.6743 28.1013 20.6652C28.0449 19.9363 28.3573 19.2701 28.8926 18.755C29.5772 18.0957 30.4724 17.7442 31.4119 17.6418C32.5922 17.513 33.8769 17.6502 34.8613 18.3554C35.5229 18.8294 35.9235 19.47 36.0632 20.2772C36.1089 20.5426 36.1318 20.8533 36.1318 21.2094C36.1325 22.4751 36.1309 23.6871 36.1271 24.8451C36.1234 25.7973 36.2237 26.6788 36.552 27.5682C36.559 27.5865 36.5527 27.5957 36.533 27.5957L33.955 27.5962C33.9475 27.5962 33.9402 27.5939 33.934 27.5898C33.9278 27.5857 33.923 27.5798 33.9202 27.573ZM43.5284 30.6207L43.5289 13.0855C43.5289 12.7194 43.6743 12.3683 43.9332 12.1095C44.192 11.8506 44.5431 11.7052 44.9092 11.7052L62.4317 11.7047C62.7978 11.7047 63.1489 11.8501 63.4077 12.109C63.6666 12.3678 63.812 12.7189 63.812 13.085L63.8152 30.6207C63.8152 30.9868 63.6697 31.3378 63.4109 31.5967C63.152 31.8556 62.8009 32.001 62.4349 32.001H44.9086C44.5426 32.001 44.1915 31.8556 43.9326 31.5967C43.6738 31.3378 43.5284 30.9868 43.5284 30.6207ZM52.9222 25.5688C52.9185 25.5687 52.9148 25.5676 52.9116 25.5656C52.9084 25.5636 52.9058 25.5608 52.9041 25.5574C52.9032 25.5556 52.9025 25.5536 52.9022 25.5516C52.9019 25.5499 52.9018 25.5482 52.902 25.5465C52.9021 25.5449 52.9024 25.5434 52.9029 25.5419C52.9036 25.5398 52.9046 25.5378 52.9059 25.5361L57.5867 19.2992C57.5894 19.2957 57.5909 19.2914 57.5909 19.287V17.7975C57.5909 17.792 57.5888 17.7868 57.5849 17.7829C57.581 17.7791 57.5758 17.7769 57.5703 17.7769H49.76C49.7545 17.7769 49.7493 17.7791 49.7454 17.7829C49.7439 17.7845 49.7426 17.7862 49.7417 17.7881C49.7402 17.791 49.7394 17.7942 49.7394 17.7975V19.8032C49.7394 19.8087 49.7416 19.8139 49.7454 19.8178C49.7493 19.8217 49.7545 19.8238 49.76 19.8238L54.2307 19.8254C54.2345 19.8255 54.2382 19.8265 54.2414 19.8286C54.2446 19.8306 54.2472 19.8334 54.2489 19.8368C54.2506 19.8402 54.2513 19.844 54.251 19.8477C54.2507 19.8515 54.2493 19.8551 54.2471 19.8581L49.5985 26.0359C49.5958 26.0394 49.5943 26.0437 49.5942 26.0481L49.5948 27.574C49.5948 27.5795 49.5969 27.5847 49.6008 27.5886C49.6047 27.5924 49.6099 27.5946 49.6154 27.5946L57.7261 27.5941C57.7288 27.5941 57.7314 27.5935 57.7339 27.5925C57.7364 27.5915 57.7387 27.59 57.7406 27.5881C57.7425 27.5861 57.744 27.5839 57.7451 27.5814C57.7461 27.5789 57.7466 27.5762 57.7466 27.5735V25.5899C57.7466 25.5872 57.7461 25.5845 57.7451 25.582C57.744 25.5795 57.7425 25.5773 57.7406 25.5753C57.7397 25.5744 57.7386 25.5735 57.7375 25.5728C57.7364 25.572 57.7352 25.5714 57.7339 25.5709C57.7326 25.5703 57.7312 25.5699 57.7298 25.5696C57.7285 25.5694 57.7273 25.5693 57.7261 25.5693L52.9222 25.5688ZM31.9313 23.2969C31.386 23.3028 30.8814 23.4537 30.5473 23.9119C30.2966 24.256 30.2158 24.7612 30.3615 25.1565C30.5215 25.5904 30.9332 25.8068 31.3813 25.8247C32.1745 25.8564 32.8181 25.5735 33.3121 24.976C33.4024 24.8673 33.4889 24.7232 33.4884 24.5769C33.4877 24.148 33.4872 23.7259 33.4868 23.3107C33.4868 23.3084 33.4864 23.3061 33.4855 23.304C33.4849 23.3025 33.484 23.3011 33.483 23.2998C33.4826 23.2993 33.4822 23.2988 33.4817 23.2984C33.4801 23.2967 33.4782 23.2955 33.4761 23.2946C33.474 23.2937 33.4717 23.2933 33.4694 23.2933C32.93 23.2904 32.4173 23.2917 31.9313 23.2969Z" fill="white"/>
</g>
<defs>
<clipPath id="clip0_4595_7853">
<rect width="84.329" height="32" fill="white" transform="translate(0.83551 0.000976562)"/>
</clipPath>
</defs>
</svg>

<svg width="86" height="32" fill="none" xmlns="http://www.w3.org/2000/svg"><g clip-path="url(#a)"><path fill-rule="evenodd" clip-rule="evenodd" d="M84.777.001h-19.51a.385.385 0 0 0-.386.385v.01c0 .213.172.385.385.385h19.511a.385.385 0 0 0 .385-.385v-.01a.385.385 0 0 0-.385-.385Zm-.549 2.393H65.815a.933.933 0 0 0-.933.932v.02c0 .514.418.932.933.932h18.413a.933.933 0 0 0 .933-.933v-.019a.933.933 0 0 0-.933-.932Zm-19.35 4.88v17.528a1.387 1.387 0 0 0 1.387 1.386l17.512.001a1.386 1.386 0 0 0 1.386-1.387l.002-17.527a1.386 1.386 0 0 0-1.387-1.387H66.264a1.387 1.387 0 0 0-1.386 1.387ZM76.52 9.338c.005.004.007.01.007.016v2.305a.023.023 0 0 1-.023.023H73.54a.023.023 0 0 1-.016-.007.023.023 0 0 1-.007-.016V9.353c0-.006.003-.012.007-.016a.023.023 0 0 1 .016-.007h2.964c.006 0 .012.002.016.007Zm-2.994 13.008a.03.03 0 0 1-.009-.021v-8.987a.03.03 0 0 1 .009-.021.03.03 0 0 1 .02-.01l2.95.002a.03.03 0 0 1 .022.009.03.03 0 0 1 .009.021V22.328a.03.03 0 0 1-.009.017.03.03 0 0 1-.021.009h-2.95a.03.03 0 0 1-.018-.006l-.003-.003Zm-52.412 8.283a1.373 1.373 0 0 1-1.373 1.373H2.208a1.373 1.373 0 0 1-1.372-1.373v-17.55a1.373 1.373 0 0 1 1.372-1.373h17.533a1.373 1.373 0 0 1 1.373 1.373v17.55Zm-9.737-9.031h1.836a.02.02 0 0 0 .02-.02v-1.8c0-.023-.013-.035-.037-.035h-1.82a.029.029 0 0 1-.029-.028c-.01-.425-.007-.845.009-1.26a1.3 1.3 0 0 1 .377-.88.537.537 0 0 1 .156-.102c.032-.016.065-.033.095-.053a.582.582 0 0 1 .173-.076c.445-.117.901-.05 1.363.022.02.003.032-.006.034-.027l.218-1.897a.046.046 0 0 0-.037-.051c-.254-.05-.506-.093-.755-.13-1.47-.215-3.24.203-3.934 1.682-.223.475-.337 1.014-.343 1.614-.003.371-.005.754-.005 1.15a.036.036 0 0 1-.036.036h-1.39c-.02 0-.03.01-.03.03v1.804a.02.02 0 0 0 .02.02h1.405c.009 0 .017.003.024.009.006.006.01.015.01.023l-.001 6.14c0 .003.001.007.004.01a.016.016 0 0 0 .012.005l2.595.002c.022 0 .032-.01.032-.032v-6.122c0-.023.012-.034.034-.034Zm30.686 10c.259-.258.404-.608.404-.974v-17.54a1.378 1.378 0 0 0-1.378-1.378H23.562a1.378 1.378 0 0 0-1.378 1.377v17.541a1.378 1.378 0 0 0 1.378 1.378h17.527c.366 0 .716-.145.974-.403Zm-8.143-4.024a5.779 5.779 0 0 1-.387-1.387c-.006-.044-.02-.047-.042-.008-.42.763-1.218 1.415-2.07 1.557a4.276 4.276 0 0 1-1.623-.063c-.916-.2-1.655-.802-1.97-1.69a3.573 3.573 0 0 1-.135-1.72c.319-1.864 2.291-2.41 3.906-2.452.573-.015 1.189-.017 1.847-.006a.04.04 0 0 0 .036-.023.036.036 0 0 0 .002-.01v-.005a14.33 14.33 0 0 0-.007-.927c-.017-.392-.179-.796-.502-1.041-.381-.29-1.008-.326-1.444-.217-.551.137-.842.5-.871 1.089a.03.03 0 0 1-.03.028h-2.493a.036.036 0 0 1-.036-.033c-.056-.729.256-1.395.792-1.91.684-.66 1.58-1.01 2.519-1.113 1.18-.129 2.465.008 3.45.713a2.882 2.882 0 0 1 1.201 1.922c.046.266.069.576.069.932 0 1.266-.001 2.478-.005 3.636-.004.952.097 1.834.425 2.723.007.018 0 .028-.019.028h-2.578a.038.038 0 0 1-.035-.023Zm9.608 3.048V13.086a1.38 1.38 0 0 1 1.381-1.38l17.523-.001a1.38 1.38 0 0 1 1.38 1.38l.003 17.536a1.38 1.38 0 0 1-1.38 1.38H44.909a1.38 1.38 0 0 1-1.38-1.38Zm9.394-5.052a.021.021 0 0 1-.018-.012.02.02 0 0 1-.002-.01v-.005a.02.02 0 0 1 .004-.006l4.68-6.237a.02.02 0 0 0 .005-.012v-1.49a.02.02 0 0 0-.02-.02H49.76a.02.02 0 0 0-.015.006.02.02 0 0 0-.003.005.02.02 0 0 0-.003.01v2.005c0 .006.003.01.006.015a.02.02 0 0 0 .015.006l4.47.001a.02.02 0 0 1 .011.004.02.02 0 0 1 .006.03L49.6 26.035a.02.02 0 0 0-.005.012v1.526a.02.02 0 0 0 .021.02h8.111a.02.02 0 0 0 .02-.013.021.021 0 0 0 0-.008v-1.991a.023.023 0 0 0-.005-.007.019.019 0 0 0-.007-.004.02.02 0 0 0-.008-.002h-4.804Zm-20.99-2.272c-.546.006-1.05.157-1.385.615-.25.344-.331.85-.186 1.245.16.433.572.65 1.02.668.794.031 1.437-.252 1.931-.849.09-.109.177-.253.176-.4a1890.375 1890.375 0 0 1-.002-1.272.018.018 0 0 0-.01-.01 95.814 95.814 0 0 0-1.545.002Z" fill="#fff"/></g><defs><clipPath id="a"><path fill="#fff" transform="translate(.836 .001)" d="M0 0h84.329v32H0z"/></clipPath></defs></svg>
